icons/solid/arrow-uturn-left.svg

<svg width="24" height="24" viewBox="0 0 24 24" fill="none" xmlns="http://www.w3.org/2000/svg">
<path fill-rule="evenodd" clip-rule="evenodd" d="M9.53033 2.46967C9.82322 2.76256 9.82322 3.23744 9.53033 3.53033L4.81066 8.25H15C18.7279 8.25 21.75 11.2721 21.75 15C21.75 18.7279 18.7279 21.75 15 21.75H12C11.5858 21.75 11.25 21.4142 11.25 21C11.25 20.5858 11.5858 20.25 12 20.25H15C17.8995 20.25 20.25 17.8995 20.25 15C20.25 12.1005 17.8995 9.75 15 9.75H4.81066L9.53033 14.4697C9.82322 14.7626 9.82322 15.2374 9.53033 15.5303C9.23744 15.8232 8.76256 15.8232 8.46967 15.5303L2.46967 9.53033C2.17678 9.23744 2.17678 8.76256 2.46967 8.46967L8.46967 2.46967C8.76256 2.17678 9.23744 2.17678 9.53033 2.46967Z" fill="#0F172A"/>
</svg>

<svg xmlns="http://www.w3.org/2000/svg" viewBox="0 0 24 24" fill="currentColor" aria-hidden="true" data-slot="icon">
  <path fill-rule="evenodd" d="M9.53 2.47a.75.75 0 0 1 0 1.06L4.81 8.25H15a6.75 6.75 0 0 1 0 13.5h-3a.75.75 0 0 1 0-1.5h3a5.25 5.25 0 1 0 0-10.5H4.81l4.72 4.72a.75.75 0 1 1-1.06 1.06l-6-6a.75.75 0 0 1 0-1.06l6-6a.75.75 0 0 1 1.06 0Z" clip-rule="evenodd"/>
</svg>
